svg/color/efk.svg

<?xml version="1.0" encoding="UTF-8" ?>
<!DOCTYPE svg PUBLIC "-//W3C//DTD SVG 1.1//EN" "http://www.w3.org/Graphics/SVG/1.1/DTD/svg11.dtd">
<svg width="250pt" height="250pt" viewBox="0 0 250 250" version="1.1" xmlns="http://www.w3.org/2000/svg">
<g id="#ffffffff">
<path fill="#ffffff" opacity="1.00" d=" M 0.00 0.00 L 118.11 0.00 C 97.28 1.62 76.68 7.66 58.95 18.87 C 31.97 35.52 11.84 62.83 3.96 93.54 C 1.85 101.70 0.63 110.07 0.00 118.46 L 0.00 0.00 Z" />
<path fill="#ffffff" opacity="1.00" d=" M 130.50 0.00 L 250.00 0.00 L 250.00 250.00 L 130.31 250.00 C 152.64 248.72 174.74 241.91 193.42 229.49 C 220.46 211.87 240.19 183.39 246.96 151.81 C 253.25 123.74 249.31 93.55 236.11 68.00 C 223.65 43.59 202.91 23.54 178.09 11.92 C 163.22 4.80 146.90 1.09 130.50 0.00 Z" />
<path fill="#ffffff" opacity="1.00" d=" M 154.52 38.24 C 157.22 41.36 159.31 44.94 161.51 48.41 C 177.48 74.71 188.58 104.87 188.27 135.95 C 187.65 151.91 184.60 168.32 176.17 182.12 C 168.15 195.20 154.71 204.37 140.06 208.50 C 123.60 213.33 106.12 213.32 89.25 211.02 C 90.34 184.59 96.78 157.37 112.80 135.84 C 119.60 127.08 127.78 118.77 138.09 114.30 C 126.81 116.37 116.56 122.56 108.04 130.09 C 91.21 145.65 82.32 167.88 77.96 189.98 C 76.85 194.67 76.61 199.52 75.47 204.20 C 66.42 187.77 59.29 168.96 62.26 149.92 C 64.60 132.38 76.29 117.26 91.04 108.04 C 99.83 102.16 110.17 99.41 119.39 94.34 C 132.15 87.62 144.47 78.52 151.27 65.47 C 155.58 57.20 157.11 47.27 154.52 38.24 Z" />
<path fill="#ffffff" opacity="1.00" d=" M 0.00 131.44 C 0.64 140.04 1.90 148.62 4.10 156.96 C 12.04 187.46 32.10 214.53 58.90 231.10 C 76.52 242.27 97.00 248.26 117.70 250.00 L 0.00 250.00 L 0.00 131.44 Z" />
</g>
<g id="#09a46dff">
<path fill="#09a46d" opacity="1.00" d=" M 118.11 0.00 L 130.50 0.00 C 146.90 1.09 163.22 4.80 178.09 11.92 C 202.91 23.54 223.65 43.59 236.11 68.00 C 249.31 93.55 253.25 123.74 246.96 151.81 C 240.19 183.39 220.46 211.87 193.42 229.49 C 174.74 241.91 152.64 248.72 130.31 250.00 L 117.70 250.00 C 97.00 248.26 76.52 242.27 58.90 231.10 C 32.10 214.53 12.04 187.46 4.10 156.96 C 1.90 148.62 0.64 140.04 0.00 131.44 L 0.00 118.46 C 0.63 110.07 1.85 101.70 3.96 93.54 C 11.84 62.83 31.97 35.52 58.95 18.87 C 76.68 7.66 97.28 1.62 118.11 0.00 M 154.52 38.24 C 157.11 47.27 155.58 57.20 151.27 65.47 C 144.47 78.52 132.15 87.62 119.39 94.34 C 110.17 99.41 99.83 102.16 91.04 108.04 C 76.29 117.26 64.60 132.38 62.26 149.92 C 59.29 168.96 66.42 187.77 75.47 204.20 C 76.61 199.52 76.85 194.67 77.96 189.98 C 82.32 167.88 91.21 145.65 108.04 130.09 C 116.56 122.56 126.81 116.37 138.09 114.30 C 127.78 118.77 119.60 127.08 112.80 135.84 C 96.78 157.37 90.34 184.59 89.25 211.02 C 106.12 213.32 123.60 213.33 140.06 208.50 C 154.71 204.37 168.15 195.20 176.17 182.12 C 184.60 168.32 187.65 151.91 188.27 135.95 C 188.58 104.87 177.48 74.71 161.51 48.41 C 159.31 44.94 157.22 41.36 154.52 38.24 Z" />
</g>
</svg>

<?xml version="1.0" encoding="utf-8"?>
<!-- Generator: Adobe Illustrator 26.0.3, SVG Export Plug-In . SVG Version: 6.00 Build 0)  -->
<svg version="1.1" id="Layer_1" xmlns="http://www.w3.org/2000/svg" xmlns:xlink="http://www.w3.org/1999/xlink" x="0px" y="0px"
	 viewBox="0 0 250 250" style="enable-background:new 0 0 250 250;" xml:space="preserve">
<style type="text/css">
	.st0{fill:#FFFFFF;}
	.st1{fill:#09A46D;}
</style>
<g id="_x23_ffffffff">
	<path class="st0" d="M154.5,38.2c2.7,3.1,4.8,6.7,7,10.2c16,26.3,27.1,56.5,26.8,87.5c-0.6,16-3.7,32.4-12.1,46.2
		c-8,13.1-21.5,22.2-36.1,26.4c-16.5,4.8-33.9,4.8-50.8,2.5c1.1-26.4,7.5-53.7,23.6-75.2c6.8-8.8,15-17.1,25.3-21.5
		c-11.3,2.1-21.5,8.3-30,15.8C91.2,145.6,82.3,167.9,78,190c-1.1,4.7-1.3,9.5-2.5,14.2c-9.1-16.4-16.2-35.2-13.2-54.3
		c2.3-17.5,14-32.7,28.8-41.9c8.8-5.9,19.1-8.6,28.3-13.7c12.8-6.7,25.1-15.8,31.9-28.9C155.6,57.2,157.1,47.3,154.5,38.2z"/>
</g>
<g id="_x23_09a46dff">
	<path class="st1" d="M118.1,0h12.4c16.4,1.1,32.7,4.8,47.6,11.9c24.8,11.6,45.6,31.7,58,56.1c13.2,25.6,17.1,55.7,10.9,83.8
		c-6.8,31.6-26.5,60.1-53.5,77.7c-18.7,12.4-40.8,19.2-63.1,20.5h-12.6c-20.7-1.7-41.2-7.7-58.8-18.9C32.1,214.5,12,187.5,4.1,157
		C1.9,148.6,0.6,140,0,131.4v-13c0.6-8.4,1.9-16.8,4-24.9c7.9-30.7,28-58,55-74.7C76.7,7.7,97.3,1.6,118.1,0 M154.5,38.2
		c2.6,9,1.1,19-3.2,27.2c-6.8,13-19.1,22.2-31.9,28.9c-9.2,5.1-19.6,7.8-28.3,13.7c-14.8,9.2-26.4,24.3-28.8,41.9
		c-3,19,4.2,37.9,13.2,54.3c1.1-4.7,1.4-9.5,2.5-14.2c4.4-22.1,13.2-44.3,30.1-59.9c8.5-7.5,18.8-13.7,30-15.8
		c-10.3,4.5-18.5,12.8-25.3,21.5c-16,21.5-22.5,48.8-23.6,75.2c16.9,2.3,34.3,2.3,50.8-2.5c14.7-4.1,28.1-13.3,36.1-26.4
		c8.4-13.8,11.5-30.2,12.1-46.2c0.3-31.1-10.8-61.2-26.8-87.5C159.3,44.9,157.2,41.4,154.5,38.2z"/>
</g>
</svg>
